X: 30724
T: LAKE ERIE
%R: reel
B: Elias Howe "The Musician's Companion" Part 3 1844 p.72 #4
S: http://imslp.org/wiki/The_Musician's_Companion_(Howe,_Elias)
Z: 2015 John Chambers <jc:trillian.mit.edu>
M: 2/4
L: 1/16
K: G
% - - - - - - - - - - - - - - - - - - - - - - - - - - - - -
BA |\
G2FG E2e2 | edef e2f2 | g2G2 B2dB | AGAB A2BA |\
G2FG E2e2 | edef e3f | g2fe dgfe d2B2B2 :|
ef |\
g3a g2G2 | Bcde d2ef | g2a2 a3f | g3a g2G2 |\
B2b2 b2a2 | g2fe dgfe | dedc BcA"^D.C."B |]
% - - - - - - - - - - - - - - - - - - - - - - - - - - - - -
